!!!COM: Palestrina, Giovanni Perluigi da
!!!OPR: Ecce sacerdos magnus
!!!OTL: Credo
**kern	**kern	**kern	**kern
*Ibass	*Itenor	*Icalto	*Icant
!Bassus	!Tenor	!Altus	!Cantus
*clefF4	*clefGv2	*clefG2	*clefG2
*k[]	*k[]	*k[]	*k[]
*G:mix	*G:mix	*G:mix	*G:mix
*M4/2	*M4/2	*M4/2	*M4/2
=1	=1	=1	=1
0r	0r	0r	0dd
=2	=2	=2	=2
0r	0r	0g	1dd
.	.	.	1b
=3	=3	=3	=3
0r	0r	1g	1dd
.	.	1e	1ee
=4	=4	=4	=4
0r	0r	1g	2.dd
.	.	.	4ee
.	.	1a	2ff
.	.	.	[2ee
=5	=5	=5	=5
0r	0r	1.g	2ee]
.	.	.	4dd
.	.	.	4cc
.	.	.	4b
.	.	.	4cc
.	.	2f	[2dd
=6	=6	=6	=6
1r	0r	1e	4dd]
.	.	.	4cc
.	.	.	1cc
[1G	.	1d	.
.	.	.	4b
.	.	.	4a
=7	=7	=7	=7
1G]	0r	2.g	2.b
.	.	8f	4cc
.	.	8e	.
1G	.	2d	2dd
.	.	[2e	2b
=8	=8	=8	=8
1E	0r	4e]	1ee
.	.	4d	.
.	.	1c	.
1G	.	.	2ee
.	.	2B	[2dd
=9	=9	=9	=9
1A	0r	2.c	4dd]
.	.	.	4cc
.	.	.	1cc
.	.	4d	.
[1G	.	2e	.
.	.	[2d	4b
.	.	.	4a
=10	=10	=10	=10
2G]	0r	4d]	2b
.	.	4c	.
2F	.	2A	2.a
1E	.	2B	.
.	.	.	4g
.	.	4A	[2g
.	.	4G	.
=11	=11	=11	=11
1D	[0d	1A	2g]
.	.	.	2f#
2r	.	1G	1g
2G	.	.	.
=12	=12	=12	=12
2F	0d]	1r	2r
2D	.	.	2dd
1G	.	2r	2b
.	.	2g	2g
=13	=13	=13	=13
2D	[0d	2f	2.dd
2.G	.	2d	.
.	.	.	4cc
.	.	1g	1b
4A	.	.	.
4B	.	.	.
4c	.	.	.
=14	=14	=14	=14
2d	1d_	2f#	2a
1G	.	2g	2g
.	1d_	2b	2.dd
2F#	.	[2a	.
.	.	.	4cc
=15	=15	=15	=15
1G	0d]	4a]	2b
.	.	4g	.
.	.	1g	4a
.	.	.	4g
1D	.	.	1a
.	.	2f#	.
=16	=16	=16	=16
1G	0B	2g	0g
.	.	1G	.
2r	.	.	.
[2G	.	2G	.
=17	=17	=17	=17
2G]	0d	2.B	1r
2G	.	.	.
.	.	4c	.
2B	.	2d	2r
2B	.	2G	[2g
=18	=18	=18	=18
2.c	[0e	2r	2g]
.	.	2c	2g
8B	.	.	.
8A	.	.	.
2G	.	2B	2b
2E	.	[2e	2b
=19	=19	=19	=19
2A	0e]	4e]	2.cc
.	.	4d	.
2A	.	2c	.
.	.	.	8b
.	.	.	8a
2.E	.	2B	2g
.	.	2G	[2cc
4F	.	.	.
=20	=20	=20	=20
1.G	[0d	1r	2cc]
.	.	.	2b
.	.	2r	2b
4F	.	[2g	4a
4E	.	.	4g
=21	=21	=21	=21
1D	0d]	2g]	1a
.	.	2f#	.
1G	.	2g	2.b
.	.	2d	.
.	.	.	4cc
=22	=22	=22	=22
2r	[0d	2f	1dd
1G	.	2g	.
.	.	2.a	1r
2F#	.	.	.
.	.	8g	.
.	.	8a	.
=23	=23	=23	=23
2G	0d]	2b-	1r
2D	.	1a	.
2F	.	.	2r
2G	.	4g	[2dd
.	.	4f	.
=24	=24	=24	=24
1A	0r	1e	2dd]
.	.	.	2cc#
1D	.	2.f	2dd
.	.	.	2a
.	.	4g	.
=25	=25	=25	=25
2r	0r	[0a	2cc
1d	.	.	2dd
.	.	.	2.ee
2c#	.	.	.
.	.	.	8dd
.	.	.	8ee
=26	=26	=26	=26
2d	0r	1a]	2ff
2A	.	.	1ee
2c	.	2r	.
2d	.	[2a	4dd
.	.	.	4cc
=27	=27	=27	=27
1e	0r	2a]	1b
.	.	2g#	.
2A	.	2a	1a
2c	.	2e	.
=28	=28	=28	=28
2d	0r	2f	2r
2B-	.	2g	1dd
1A	.	1a	.
.	.	.	2cc#
=29	=29	=29	=29
1r	[0d	2f	2dd
.	.	2f	2a
[1G	.	1g	2.b
.	.	.	4cc
=30	=30	=30	=30
2G]	0d]	1a	1dd
2F#	.	.	.
2G	.	4d	2b
.	.	4e	.
2D	.	4f	[2dd
.	.	4g	.
=31	=31	=31	=31
2F	0d	2a	4dd]
.	.	.	4cc
2G	.	1g	2b
1D	.	.	2a
.	.	2f#	[2dd
=32	=32	=32	=32
1G	0B	1g	2dd]
.	.	.	1b
1E	.	2r	.
.	.	2g	[2ee
=33	=33	=33	=33
2.A	[0c	2e	4ee]
.	.	.	4dd
.	.	1a	4cc
4G	.	.	4b
2F	.	.	2a
2E	.	4g	[2ee
.	.	4f	.
=34	=34	=34	=34
1A	1c]	2e	2ee]
.	.	2f#	4dd
.	.	.	4cc
1G	[1d	1g	4b
.	.	.	4cc
.	.	.	[2dd
=35	=35	=35	=35
1F	0d]	1a	2dd]
.	.	.	1cc
1G	.	1g	.
.	.	.	2b
=36	=36	=36	=36
0C	0c	1e	2cc
.	.	.	2.gg
.	.	2r	.
.	.	.	4ff
.	.	[2g	2ee
=37	=37	=37	=37
0r	0G	4g]	2dd
.	.	4f	.
.	.	2e	2cc
.	.	2d	2b
.	.	2c	2ee
=38	=38	=38	=38
0r	0G	2B	2dd
.	.	2e	1cc
.	.	2d	.
.	.	2d	2b
=39	=39	=39	=39
2r	0r	1c	2cc
2.c	.	.	2.ee
.	.	2r	.
4B	.	.	4dd
2A	.	[2e	2cc
=40	=40	=40	=40
2G	0r	4e]	2b
.	.	4d	.
2A	.	2c	2cc
2E	.	2B	1g
[2c	.	2e	.
=41	=41	=41	=41
4c]	0c	1A	2r
4B	.	.	.
2.A	.	.	2.cc
.	.	2r	.
4G	.	.	4b
2F	.	[2c	2a
=42	=42	=42	=42
2E	0c	4c]	2g
.	.	4B	.
2F	.	2A	2a
2C	.	2G	2e
[2c	.	[2A	[2ee
=43	=43	=43	=43
4c]	0c	4A]	4ee]
4B	.	4B	4dd
2.A	.	4c	2.cc
.	.	4d	.
.	.	2e	.
4G	.	.	4b
[2F	.	[2f	[2a
=44	=44	=44	=44
4F]	0A	2f]	4a]
4E	.	.	4g
2C	.	1e	2e
2D	.	.	2f
2D	.	2d	2f
=45	=45	=45	=45
1A	0c	2e	0e
.	.	2a	.
2r	.	2g	.
2A	.	2e	.
=46	=46	=46	=46
2G	0B	0g	2r
2E	.	.	2ee
[1G	.	.	2dd
.	.	.	2b
=47	=47	=47	=47
1G]	0r	2d	0dd
.	.	2g	.
2D	.	2f	.
2G	.	2d	.
=48	=48	=48	=48
2F	0r	1.f	2a
2D	.	.	2dd
[1F	.	.	2cc
.	.	2f	2a
=49	=49	=49	=49
2F]	0r	2c	1.cc
2F	.	1f	.
2C	.	.	.
[2c	.	2e	2cc
=50	=50	=50	=50
2c]	0r	1d	1g
2B	.	.	.
1A	.	2c	2r
.	.	2c	[2cc
=51	=51	=51	=51
2G	0r	2.d	2cc]
2G	.	.	2b
.	.	4e	.
2.A	.	2f	1a
.	.	[2e	.
4B	.	.	.
=52	=52	=52	=52
2c	0r	2e]	2g
2.B	.	2.d	2g
.	.	.	2.a
4A	.	4c	.
[2A	.	2c	.
.	.	.	4b
=53	=53	=53	=53
2A]	0r	2A	2cc
2G#	.	2B	1b
1A	.	2.c	.
.	.	.	[2a
.	.	8B	.
.	.	8A	.
=54	=54	=54	=54
1E	0r	1B	2a]
.	.	.	2g#
2r	.	1A	[1a
[2A	.	.	.
=55	=55	=55	=55
2A]	0A	2r	1a]
2D	.	1f	.
2F	.	.	1r
2F	.	2c	.
=56	=56	=56	=56
4C	0G	2e	1r
4D	.	.	.
4E	.	2e	.
4F	.	.	.
1G	.	2.d	2r
.	.	.	[2dd
.	.	4e	.
=57	=57	=57	=57
1D	0A	1.f	2dd]
.	.	.	2a
1r	.	.	2cc
.	.	4e	2cc
.	.	4d	.
=58	=58	=58	=58
2r	[0c	1e	1g
1c	.	.	.
.	.	2A	1a
2F	.	[2a	.
=59	=59	=59	=59
2A	1c]	2a]	0r
2A	.	2e	.
2E	[1B	2g	.
2E	.	2g	.
=60	=60	=60	=60
1G	1B]	2d	2r
.	.	2d	1dd
1D	[1A	[1f	.
.	.	.	2a
=61	=61	=61	=61
0r	0A]	2f]	1.cc
.	.	4e	.
.	.	4d	.
.	.	2e	.
.	.	2f#	2cc
=62	=62	=62	=62
1r	0G	2g	1b
.	.	1g	.
2r	.	.	1b
[2d	.	2d	.
=63	=63	=63	=63
2d]	0r	2f	1a
2A	.	2f	.
2c	.	2e	1g
2c	.	[2g	.
=64	=64	=64	=64
2.B	0r	4g]	2r
.	.	4f	.
.	.	4d	1dd
4c	.	4e	.
1d	.	2.f	.
.	.	.	2a
.	.	4e	.
=65	=65	=65	=65
2A	0r	4c	2cc
.	.	4d	.
2c	.	2.e	2cc
1G	.	.	1b
.	.	4d	.
.	.	[2g	.
=66	=66	=66	=66
1r	0d	2g]	2a
.	.	2f#	2a
1G	.	1g	[1b
=67	=67	=67	=67
1G	0d	0r	2b]
.	.	.	4a
.	.	.	4g
2F	.	.	1a
2D	.	.	.
=68	=68	=68	=68
1.E	0B	2r	1g
.	.	2g	.
.	.	1g	1r
2E	.	.	.
=69	=69	=69	=69
0D	0d	2f	2r
.	.	2d	2dd
.	.	[1a	1dd
=70	=70	=70	=70
1A	0e	2a]	2cc
.	.	2a	2a
2E	.	1g	[1b
2E	.	.	.
=71	=71	=71	=71
1G	0d	2r	2b]
.	.	2g	2b
2D	.	2g	1a
2D	.	2f#	.
=72	=72	=72	=72
2.G	0d	1g	0r
4A	.	.	.
4B	.	2d	.
4c	.	.	.
[2d	.	2f	.
=73	=73	=73	=73
2d]	0r	1e	1ee
2c#	.	.	.
2.d	.	1d	2.ff
4c	.	.	4ee
=74	=74	=74	=74
2B-	0r	2r	2dd
2A	.	2a	2cc#
1G	.	2.b-	2.dd
.	.	4a	4cc
=75	=75	=75	=75
0r	0r	2g	2b-
.	.	2f#	2a
.	.	2.g	2.b-
.	.	4f	4a
=76	=76	=76	=76
1r	0r	2e	2g
.	.	1d	2f
1A	.	.	1e
.	.	2c#	.
=77	=77	=77	=77
2.B-	0d	2d	2d
.	.	2f	2dd
4A	.	.	.
2G	.	2g	2.dd
2F#	.	[2a	.
.	.	.	4cc
=78	=78	=78	=78
1G	0d	4a]	2b-
.	.	4g	.
.	.	1g	4a
.	.	.	4g
1D	.	.	1a
.	.	2f#	.
=79	=79	=79	=79
1G	0B	1g	1g
1G	.	1g	1dd
=80	=80	=80	=80
1A	0c	1e	1cc
1A	.	1f#	1a
=81	=81	=81	=81
1G	0d	1g	1b
1G	.	2.g	1b
.	.	4f	.
=82	=82	=82	=82
0C	0c	4e	1cc
.	.	4d	.
.	.	1e	.
.	.	.	1ee
.	.	4d	.
.	.	4c	.
=83	=83	=83	=83
1r	0G	1B	1dd
1G	.	1d	1b
=84	=84	=84	=84
1E	0G	1e	1b
2C	.	1e	[1cc
2C	.	.	.
=85	=85	=85	=85
0G	0r	1d	2cc]
.	.	.	4b
.	.	.	4a
.	.	1g	1b
=86	=86	=86	=86
1D	0r	1f	1a
[1A	.	[1e	[1cc
=87	=87	=87	=87
2A]	0c	2e]	2cc]
2A	.	2e	2cc
[1F	.	[1f	[1a
=88	=88	=88	=88
1F]	0c	1f]	1a]
1C	.	1e	1g
=89	=89	=89	=89
1F	0c	1f	1a
1C	.	1e	[1g
=90	=90	=90	=90
0D	0A	1d	2g]
.	.	.	4f
.	.	.	4e
.	.	1a	2f
.	.	.	2f
=91	=91	=91	=91
1r	0c	1g	1e
1A	.	1e	1r
=92	=92	=92	=92
1G	0B	1g	1r
1E	.	1g	1ee
=93	=93	=93	=93
1F	0A	2a	1cc
.	.	1f	.
1D	.	.	1dd
.	.	4e	.
.	.	4d	.
=94	=94	=94	=94
2.G	0G	2e	2b
.	.	1d	2g
4F	.	.	.
1E	.	.	1gg
.	.	2c#	.
=95	=95	=95	=95
0D	0A	1d	1ff
.	.	1a	1dd
=96	=96	=96	=96
1r	0c	1g	1ee
1A	.	1e	1cc
=97	=97	=97	=97
1G	0B	0g	1dd
1E	.	.	1ee
=98	=98	=98	=98
1F	0A	0f	1cc
1D	.	.	1dd
=99	=99	=99	=99
1E	[0G	0e	2b
.	.	.	2.ee
1C	.	.	.
.	.	.	4dd
.	.	.	[2cc
=100	=100	=100	=100
[0G	1G_	[0d	2cc]
.	.	.	4b
.	.	.	4a
.	1G_	.	2b
.	.	.	2cc
=101	=101	=101	=101
1G_	0G]	1d_	[0b
1G_	.	1d_	.
=102	=102	=102	=102
0G]	0G	0d]	0b]
*	*	*	*-
!! Crucifixus
*Ibass	*Icalto	*Icant
!Bassus	!Altus	!Cantus
*clefF4	*clefG2	*clefG2
*k[]	*k[]	*k[]
*G:mix	*G:mix	*G:mix
*M4/2	*M4/2	*M4/2
=103	=103	=103
0G	0r	0r
=104	=104	=104
1E	0r	0r
1A	.	.
=105	=105	=105
1G	1r	0r
2r	[1g	.
[2c	.	.
=106	=106	=106
2c]	1g]	0r
2B-	.	.
2G	1e	.
2A	.	.
=107	=107	=107
2.F	0a	0r
4G	.	.
4A	.	.
4B	.	.
[2c	.	.
=108	=108	=108
2c]	1g	1r
4B	.	.
4A	.	.
2B	2r	[1dd
2G	[2g	.
=109	=109	=109
1d	2g]	1dd]
.	2f	.
1G	2d	1b
.	2e	.
=110	=110	=110
1r	2.c	0ee
.	4d	.
2r	4e	.
.	4f	.
[2c	[2g	.
=111	=111	=111
2c]	4g]	1dd
.	4f	.
2B-	2d	.
2G	1e	2r
2A	.	[2cc
=112	=112	=112
2F	2.d	2cc]
2.G	.	2b-
.	8c	.
.	8d	.
.	2e	2g
4E	.	.
2F	[2c	2a
=113	=113	=113
1D	2c]	2.f
.	2B	.
.	.	4g
[1C	1c	4a
.	.	4b
.	.	4cc
.	.	4dd
=114	=114	=114
1C]	1r	4ee
.	.	4ff
.	.	1ee
1r	1c	.
.	.	4dd
.	.	4cc
=115	=115	=115
1G	1.g	1b
[1d	.	[1a
.	2f	.
=116	=116	=116
2d]	2d	1a]
2c	2e	.
2A	2f	1r
[2c	[2e	.
=117	=117	=117
2c]	4e]	1g
.	4f	.
4B	2.g	.
4A	.	.
2G	.	[1dd
.	4f	.
2B	2d	.
=118	=118	=118
0A	1e	2dd]
.	.	2cc
.	2r	2a
.	2c	[2cc
=119	=119	=119
1.E	1.g	2cc]
.	.	4b
.	.	4a
.	.	2g
2F	2f	2a
=120	=120	=120
2G	2d	2b-
2D	1f	4a
.	.	4b
1A	.	4cc
.	.	4dd
.	4e	[2ee
.	4d	.
=121	=121	=121
2r	2c	4ee]
.	.	4dd
2C	2e	1cc
[1G	2.d	.
.	.	4b-
.	4c	4a
=122	=122	=122
2G]	4d	2b-
.	4e	.
2F	2.f	2a
2D	.	1a
.	4e	.
[2F	2c	.
=123	=123	=123
2F]	2d	1r
4E	2.e	.
4D	.	.
2C	.	1cc
.	4d	.
2E	[2c	.
=124	=124	=124
1D	2c]	1.ff
.	2B	.
1C	[1c	.
.	.	2ee
=125	=125	=125
2r	1c]	2cc
1c	.	2ee
.	1G	1dd
2B	.	.
=126	=126	=126
2.c	1r	2.ee
4B	.	4dd
2A	2r	2cc
2G	[2g	2b
=127	=127	=127
2c	2g]	1a
2d	2f#	.
[1G	2.g	1b
.	4f	.
=128	=128	=128
1G]	2e	2r
.	2d	1dd
1r	2g	.
.	2a	2cc#
=129	=129	=129
2r	1d	2.dd
2G	.	.
.	.	4cc
2G	2r	2b-
2F	2d	2a
=130	=130	=130
2B-	2d	2dd
2A	2c	2ee
2.F	[1f	2.a
4G	.	4b
=131	=131	=131
4A	2f]	1cc
4B	.	.
1c	2e	.
.	2c	1r
2B	2d	.
=132	=132	=132
2G	2e	1r
2A	1f	.
1B-	.	2r
.	4e	2dd
.	4d	.
=133	=133	=133
1A	1e	2dd
.	.	2cc
1r	4d	[1ff
.	4e	.
.	4f	.
.	4g	.
=134	=134	=134
2r	2.a	2ff]
2A	.	2ee
.	8g	.
.	8f	.
2A	2e	2cc
2D	2f	2dd
=135	=135	=135
2.A	1c	2.ee
4B	.	4dd
4c	1r	2ee
4A	.	.
[2d	.	2ff
=136	=136	=136
2d]	2r	1ee
2c#	2a	.
2d	2a	1r
2B-	2d	.
=137	=137	=137
0A	2.a	2r
.	.	2ee
.	4b	.
.	4cc	2ee
.	4a	.
.	[2cc	2a
=138	=138	=138
0r	4cc]	2.ee
.	4b	.
.	2a	.
.	.	4ff
.	2g	4gg
.	.	4ee
.	[2a	[2ff
=139	=139	=139
1A	4a]	2ff]
.	4g	.
.	2e	1ee
1d	1f	.
.	.	2dd
=140	=140	=140
1c	1e	0ee
2A	2r	.
[2c	2e	.
=141	=141	=141
4c]	1a	0r
4B	.	.
4c	.	.
4A	.	.
2B	1g	.
[2c	.	.
=142	=142	=142
2c]	2e	0r
4B	2.g	.
4A	.	.
4G	.	.
4A	4f#	.
4B	4g	.
4c	4e	.
=143	=143	=143
1.d	2f	1r
.	4d	.
.	4e	.
.	4f	1a
.	4g	.
2c	[2a	.
=144	=144	=144
1B	2a]	1dd
.	2g#	.
[1A	2a	1cc
.	2e	.
=145	=145	=145
1A]	2f	2a
.	4e	2.cc
.	4d	.
1r	4c	.
.	4d	4b
.	4e	4cc
.	4f	4a
=146	=146	=146
0r	1.g	2b
.	.	4g
.	.	4a
.	.	4b
.	.	4cc
.	2f	[2dd
=147	=147	=147
1A	1e	2dd]
.	.	2cc#
2D	1d	2dd
2D	.	[2ff
=148	=148	=148
1.d	1r	4ff]
.	.	4ee
.	.	4ff
.	.	4dd
.	1a	1ee
2c	.	.
=149	=149	=149
2B	2d	1dd
2.G	2d	.
.	[1g	1r
4A	.	.
4B	.	.
4c	.	.
=150	=150	=150
1d	2g]	1dd
.	2f	.
2c	2e	2g
2B	4d	2g
.	4e	.
=151	=151	=151
1A	4f	1.cc
.	4e	.
.	4c	.
.	4d	.
1G	4e	.
.	4f#	.
.	[2g	2b
=152	=152	=152
1r	2g]	1a
.	2f	.
1G	2e	4b
.	.	4cc
.	2d	4dd
.	.	4b
=153	=153	=153
2C	1e	4cc
.	.	4dd
2C	.	2.ee
[1c	1r	.
.	.	4dd
.	.	4ee
.	.	4cc
=154	=154	=154
2c]	1g	1dd
2B	.	.
2A	2c	[1cc
[2F	2c	.
=155	=155	=155
4F]	1.f	1cc]
4G	.	.
4A	.	.
4B	.	.
2c	.	1r
4C	2e	.
4D	.	.
=156	=156	=156
4E	2e	1gg
4F	.	.
2G	2.d	.
2F	.	2cc
.	4c	.
2E	[2c	2cc
=157	=157	=157
1D	2c]	1.ff
.	2B	.
2C	1c	.
[2c	.	2ee
=158	=158	=158
2c]	1G	2dd
2B	.	2.gg
1c	2r	.
.	.	4ff
.	[2g	4ee
.	.	4dd
=159	=159	=159
0C	4g]	4ee
.	4f	4dd
.	4e	4cc
.	4d	4b
.	1e	1cc
=160	=160	=160
[0G	[0d	[0b
=161	=161	=161
0G]	0d]	0b]
*-	*-	*-
!! Et iterum
**kern	**kern	**kern	**kern
*Ibass	*Itenor	*Icalto	*Icant
!Bassus	!Tenor	!Altus	!Cantus
*clefF4	*clefGv2	*clefG2	*clefG2
*k[]	*k[]	*k[]	*k[]
*G:mix	*G:mix	*G:mix	*G:mix
*M4/2	*M4/2	*M4/2	*M4/2
=162	=162	=162	=162
0r	0r	1g	1r
.	.	2g	1dd
.	.	2g	.
=163	=163	=163	=163
0r	0r	2f	2dd
.	.	2d	2dd
.	.	2e	2cc
.	.	2f#	2a
=164	=164	=164	=164
0r	0r	1.g	2.b
.	.	.	4cc
.	.	.	[1dd
.	.	4f	.
.	.	4e	.
=165	=165	=165	=165
0r	0r	4f	2dd]
.	.	4g	.
.	.	1a	4cc
.	.	.	4b
.	.	.	2cc
.	.	[2g	2b
=166	=166	=166	=166
1r	0d	2g]	1a
.	.	2f#	.
1G	.	2g	[1b
.	.	4G	.
.	.	4A	.
=167	=167	=167	=167
2G	0d	4B	2b]
.	.	4c	.
2G	.	4d	4a
.	.	4e	4g
2F	.	1f	1a
2D	.	.	.
=168	=168	=168	=168
2.E	0B	2e	[0g
.	.	2e	.
4F	.	.	.
[1G	.	1d	.
=169	=169	=169	=169
2G]	0d	2r	1g]
4F	.	2G	.
4E	.	.	.
2F	.	2A	1r
2G	.	2B	.
=170	=170	=170	=170
1C	[0e	1c	2r
.	.	.	2g
1r	.	2A	2a
.	.	2G	2b
=171	=171	=171	=171
0r	0e]	4A	1cc
.	.	4B	.
.	.	4c	.
.	.	4d	.
.	.	4e	2b
.	.	4f#	.
.	.	[2g	2g
=172	=172	=172	=172
1r	[0d	2g]	1a
.	.	2f#	.
1G	.	1g	4g
.	.	.	4a
.	.	.	4b
.	.	.	4cc
=173	=173	=173	=173
2F	0d]	2r	1dd
2G	.	2g	.
2.B-	.	2f	1r
.	.	2g	.
4A	.	.	.
=174	=174	=174	=174
2G	0d	2b-	0r
2F#	.	2.a	.
1G	.	.	.
.	.	4g	.
.	.	[2g	.
=175	=175	=175	=175
1D	0r	4g]	1dd
.	.	4f	.
.	.	4f	.
.	.	8e	.
.	.	8d	.
2A	.	2e	2cc
2B-	.	[2d	2dd
=176	=176	=176	=176
[0A	0r	2d]	2ff
.	.	2c	2.ee
.	.	1f	.
.	.	.	4dd
.	.	.	[2dd
=177	=177	=177	=177
1A]	0r	1e	2dd]
.	.	.	2cc#
2r	.	2d	1dd
[2G	.	[2B	.
=178	=178	=178	=178
2G]	[0d	2B]	1r
2F#	.	2A	.
1G	.	1B	2r
.	.	.	[2g
=179	=179	=179	=179
1D	0d]	1A	2g]
.	.	.	2f#
2r	.	1G	4g
.	.	.	4a
2G	.	.	4b
.	.	.	4cc
=180	=180	=180	=180
2.B	0d	2r	1dd
.	.	1g	.
4c	.	.	.
1d	.	.	2a
.	.	2f#	2a
=181	=181	=181	=181
0G	0B	1g	2.b
.	.	.	4cc
.	.	2d	1dd
.	.	2d	.
=182	=182	=182	=182
0r	0c	2.e	1g
.	.	4f	.
.	.	2g	2r
.	.	2e	[2cc
=183	=183	=183	=183
2r	[0d	2f#	2cc]
1G	.	2g	2b
.	.	1a	2.dd
2F#	.	.	.
.	.	.	4cc
=184	=184	=184	=184
2G	0d]	1r	2b
2G	.	.	2b
2D	.	2r	1a
[2F	.	[2a	.
=185	=185	=185	=185
2F]	[0c	2a]	2.cc
2E	.	2g	.
.	.	.	4b
2F	.	2f	2a
2F	.	2f	2a
=186	=186	=186	=186
2.C	1c]	1e	2g
.	.	.	1cc
4D	.	.	.
4E	[1G	1r	.
4F	.	.	.
2G	.	.	2b
=187	=187	=187	=187
1C	0G]	2r	1ee
.	.	1c	.
1r	.	.	2ee
.	.	2B	[2dd
=188	=188	=188	=188
1r	0G	2e	4dd]
.	.	.	4cc
.	.	2e	1cc
1G	.	1d	.
.	.	.	2b
=189	=189	=189	=189
1A	0r	1c	2.cc
.	.	.	4dd
1c	.	2r	1ee
.	.	2c	.
=190	=190	=190	=190
2B	0r	1d	1dd
2.d	.	.	.
.	.	1f	1r
4d	.	.	.
2d	.	.	.
=191	=191	=191	=191
2c	0r	2e	0r
2B	.	2.g	.
2.c	.	.	.
.	.	4g	.
.	.	2g	.
4B	.	.	.
=192	=192	=192	=192
2A	0r	2f	2r
2G	.	2e	2g
2.F	.	2d	1a
.	.	[2c	.
4G	.	.	.
=193	=193	=193	=193
1A	0r	4c]	1cc
.	.	4d	.
.	.	2.e	.
1G	.	.	2b
.	.	4d	.
.	.	4B	[2dd
.	.	4c	.
=194	=194	=194	=194
0r	0r	4d	4dd]
.	.	4e	4dd
.	.	4f	2dd
.	.	4d	.
.	.	4e	2cc
.	.	4f	.
.	.	2g	2b
=195	=195	=195	=195
2r	0r	2f	2a
2C	.	2e	1cc
1G	.	1d	.
.	.	.	2b
=196	=196	=196	=196
1A	[0c	2r	1cc
.	.	2c	.
2E	.	1g	1r
2C	.	.	.
=197	=197	=197	=197
2F	0c]	1a	2r
2F	.	.	2cc
1C	.	2e	1ee
.	.	2g	.
=198	=198	=198	=198
2.F	0c	2.a	1ff
4G	.	4g	.
4A	.	2.e	2cc
4B	.	.	.
[2c	.	.	[2ee
.	.	4f	.
=199	=199	=199	=199
4c]	0c	2g	2ee]
4B	.	.	.
4A	.	1a	1ff
4G	.	.	.
2F	.	.	.
2E	.	2g	[2ee
=200	=200	=200	=200
2D	0A	2f	2ee]
2D	.	2f	2dd
1A	.	2e	[1ee
.	.	[2a	.
=201	=201	=201	=201
2r	[0c	2a]	1ee]
1A	.	2a	.
.	.	2f	1r
2A	.	2e	.
=202	=202	=202	=202
2F	0c]	2a	0r
2E	.	1g	.
1A	.	.	.
.	.	2f#	.
=203	=203	=203	=203
0G	0B	1g	2r
.	.	.	2dd
.	.	2r	2dd
.	.	2g	2dd
=204	=204	=204	=204
2r	0r	2g	2b
2c	.	2g	2g
2c	.	1e	2.cc
2c	.	.	.
.	.	.	4dd
=205	=205	=205	=205
2A	0r	2c	4ee
.	.	.	4cc
2F	.	2.f	2.dd
1A	.	.	.
.	.	4e	4cc
.	.	2c	[2cc
=206	=206	=206	=206
1G	0r	1d	2cc]
.	.	.	2b
2r	.	2.A	1cc
[2F	.	.	.
.	.	4B	.
=207	=207	=207	=207
2F]	0A	2c	2r
2D	.	2d	1ff
2F	.	1c	.
2F	.	.	2cc
=208	=208	=208	=208
2.E	[0G	2r	2ee
.	.	1g	2ee
4F	.	.	.
2G	.	.	2dd
[2C	.	2e	[2ee
=209	=209	=209	=209
2C]	1G]	2g	2ee]
2E	.	2g	2b
2.D	[1A	2.f	1dd
4E	.	4g	.
=210	=210	=210	=210
4F	0A]	2a	2.cc
4G	.	.	.
2A	.	2e	.
.	.	.	4b
2F	.	2f	4a
.	.	.	4g
[2c	.	4e	[2a
.	.	4d	.
=211	=211	=211	=211
4c]	0c	1e	4a]
4B	.	.	4g
4A	.	.	1g
4G	.	.	.
2A	.	1c	.
2A	.	.	2f#
=212	=212	=212	=212
0G	0B	1d	0g
.	.	2r	.
.	.	2d	.
=213	=213	=213	=213
1D	0A	2f	2r
.	.	2f	2a
1r	.	2.e	2cc
.	.	.	2cc
.	.	4f	.
=214	=214	=214	=214
0r	0G	1g	2.b
.	.	.	4cc
.	.	2d	1dd
.	.	2g	.
=215	=215	=215	=215
0r	0r	2f	2a
.	.	4e	2dd
.	.	4d	.
.	.	2e	2cc
.	.	2e	4b
.	.	.	4a
=216	=216	=216	=216
1r	0r	2d	2b
.	.	2g	2b
1d	.	2f	[1a
.	.	2d	.
=217	=217	=217	=217
2c	0r	2e	1a]
2A	.	2e	.
2B	.	2.d	2r
2B	.	.	2dd
.	.	4e	.
=218	=218	=218	=218
1A	0r	2f	2cc
.	.	2.e	2a
1G	.	.	2b
.	.	4d	.
.	.	2B	2b
=219	=219	=219	=219
2F	0r	2c	1a
4E	.	1d	.
4D	.	.	.
2E	.	.	1g
2E	.	2c#	.
=220	=220	=220	=220
2D	0r	1d	2f
1d	.	.	4e
.	.	.	4d
.	.	1A	2e
2c	.	.	2e
=221	=221	=221	=221
2.B-	0d	2r	2d
.	.	2.d	2f
4A	.	.	.
2G	.	.	2g
.	.	4c	.
2F	.	2A	[2a
=222	=222	=222	=222
1G	0d	2B-	4a]
.	.	.	4g
.	.	4A	1g
.	.	4G	.
1D	.	2A	.
.	.	2A	2f#
=223	=223	=223	=223
0G	0B	2G	1g
.	.	2d	.
.	.	2d	2r
.	.	2d	2dd
=224	=224	=224	=224
2r	0d	2.B	2dd
2G	.	.	2dd
.	.	4A	.
2G	.	1G	2.b
2G	.	.	.
.	.	.	4a
=225	=225	=225	=225
2.E	0e	2r	1g
.	.	2g	.
4D	.	.	.
1C	.	2g	2r
.	.	2g	2cc
=226	=226	=226	=226
0G	0d	1g	2b-
.	.	.	2g
.	.	2r	2.b-
.	.	2g	.
.	.	.	8a
.	.	.	8g
=227	=227	=227	=227
2r	0d	2f	2a
2G	.	2d	2b-
2F	.	1f	1a
2D	.	.	.
=228	=228	=228	=228
2.F	0r	1c	2r
.	.	.	1a
4G	.	.	.
4A	.	2r	.
4B	.	.	.
[2c	.	[2e	2g
=229	=229	=229	=229
2c]	0r	2e]	2a
2B	.	2d	2b
1A	.	2e	1cc
.	.	2f#	.
=230	=230	=230	=230
1G	0d	1g	2b
.	.	.	1dd
1r	.	2f#	.
.	.	[2a	2cc
=231	=231	=231	=231
0D	0d	4a]	2b
.	.	4g	.
.	.	1g	4a
.	.	.	4g
.	.	.	1a
.	.	2f	.
=232	=232	=232	=232
1E	0B	1e	1g
1G	.	2.d	2r
.	.	.	2g
.	.	4e	.
=233	=233	=233	=233
2.F	0c	1f	1a
4G	.	.	.
1A	.	2.e	[1cc
.	.	4f	.
=234	=234	=234	=234
0G	0d	1g	2cc]
.	.	.	4b
.	.	.	4a
.	.	1G	1b
=235	=235	=235	=235
0r	0c	1A	2.cc
.	.	.	4dd
.	.	[1c	1ee
=236	=236	=236	=236
0r	0G	2c]	0dd
.	.	4B	.
.	.	4A	.
.	.	1B	.
=237	=237	=237	=237
1.C	1G	2c	2r
.	.	1g	1ee
.	[1c	.	.
2C	.	2g	2ee
=238	=238	=238	=238
2C	1c]	2g	2ee
2C	.	2g	2ee
1F	1c	1a	1ff
=239	=239	=239	=239
1C	0c	1g	1ee
[1F	.	[1a	[1cc
=240	=240	=240	=240
1F]	0A	1a]	1cc]
1D	.	1f	1dd
=241	=241	=241	=241
0A	0c	1e	1ee
.	.	[1a	1ee
=242	=242	=242	=242
0E	0B	2a]	2r
.	.	4g	2b
.	.	4f#	.
.	.	1g#	1ee
=243	=243	=243	=243
1r	0A	1a	2cc
.	.	.	2a
1D	.	2r	1dd
.	.	[2d	.
=244	=244	=244	=244
1G	0G	2d]	1b
.	.	1g	.
2E	.	.	1r
2C	.	2e	.
=245	=245	=245	=245
2.F	0A	2c	1cc
.	.	1f	.
4E	.	.	.
1D	.	.	1ff
.	.	2d	.
=246	=246	=246	=246
0C	0c	2.e	2ee
.	.	.	2cc
.	.	4f	.
.	.	[1g	1ee
=247	=247	=247	=247
1.G	0B	2g]	2.dd
.	.	2g	.
.	.	.	4cc
.	.	[1d	2b
2G	.	.	[2g
=248	=248	=248	=248
0D	0A	1d]	2g]
.	.	.	4f#
.	.	.	4e
.	.	2r	2f#
.	.	[2d	2f#
=249	=249	=249	=249
1G	[0G	4d]	0g
.	.	4c	.
.	.	4d	.
.	.	4B	.
1C	.	4c	.
.	.	4d	.
.	.	[2e	.
=250	=250	=250	=250
2.G	0G]	4e]	2r
.	.	4d	.
.	.	1d	2.gg
4F	.	.	.
1E	.	.	.
.	.	.	4ff
.	.	2c#	4gg
.	.	.	4ee
=251	=251	=251	=251
2D	0r	1d	2ff
2.d	.	.	2.dd
.	.	[1a	.
4c	.	.	4ee
4d	.	.	4ff
4B	.	.	4dd
=252	=252	=252	=252
2c	0r	1a]	2ee
2.A	.	.	2cc
.	.	1a	1ee
4B	.	.	.
4c	.	.	.
4A	.	.	.
=253	=253	=253	=253
2B	0r	2r	2.dd
2.G	.	2.g	.
.	.	.	4cc
.	.	.	1b
4A	.	4f	.
4B	.	4g	.
4c	.	4e	.
=254	=254	=254	=254
1d	0r	2f	2a
.	.	2.d	2.dd
1D	.	.	.
.	.	4e	4cc
.	.	4f	4dd
.	.	4d	4b
=255	=255	=255	=255
0r	0A	2e	2cc
.	.	2.c	2.a
.	.	4d	4b
.	.	4e	4cc
.	.	4f	4a
=256	=256	=256	=256
2r	0G	1g	2b
2.G	.	.	2g
.	.	2r	1b
4F	.	.	.
4G	.	[2d	.
4E	.	.	.
=257	=257	=257	=257
2F	0A	4d]	2.a
.	.	4c	.
2.D	.	4d	.
.	.	4e	4g
.	.	4f	1f
4E	.	4g	.
4F	.	2a	.
4D	.	.	.
=258	=258	=258	=258
2E	0c	0g	2e
2C	.	.	2.ee
1C	.	.	.
.	.	.	4dd
.	.	.	4ee
.	.	.	4cc
=259	=259	=259	=259
0G	0B	2r	2dd
.	.	2.g	2.b
.	.	4f	4cc
.	.	4d	4dd
.	.	4e	4b
=260	=260	=260	=260
1A	[0A	4c	4cc
.	.	4d	4b
.	.	4e	4a
.	.	4c	4g
2.D	.	4d	4f
.	.	4e	4g
.	.	[2f	[2a
4E	.	.	.
=261	=261	=261	=261
2F	0A]	2f]	2a]
2C	.	2e	1g
1D	.	1d	.
.	.	.	2f#
=262	=262	=262	=262
[0G	[0G	[0d	[0g
=263	=263	=263	=263
0G]	0G]	0d]	0g]
==	==	==	==
*-	*-	*-	*-
!!!CDT: 1525/^1526/-1594/2/2
!!!OCY: Italia
!!!AGN: Mass (Tenor)
!!!AST: renaissance, vocal
!!!ASW: Antiphon
!!!PWK: Masses, Book I
!!!RNB: Cadence finals: D,C
!!!YOR: Le Opere Complete, v. 1, p. 1
!!!YOO: Rome, Italy: Fratelli Scalera
!!!END: 1992//
!!!EED: John Miller
!!!YEC: Copyright 2000, John Miller
!!!YEN: United States of America
!!!YEM: Rights to all derivative electronic formats reserved.
!!!YEM: Refer to licensing agreement for further details.
!!!YEM: This file must be accompanied by the licensing agreement.
!!!YEM: A copy of the licensing agreement may be found at http://www.music-cog.ohio-state.edu/HumdrumDatabases/Palestrina/license.txt
!!!EMD: converted to Humdrum by Bret Aarden
